public/illustrations/_blackboard.svg

<svg width="370" height="235" viewBox="0 0 370 235" fill="none" xmlns="http://www.w3.org/2000/svg">
<path d="M189.531 137.423L182.111 146.895C193.084 151.879 195.35 155.659 194.897 167.85L196.284 168.133C207.526 167.538 212.595 174.631 213.02 185.265C213.119 188.323 212.468 191.509 210.938 194.086C209.154 197.186 207.498 200.315 205.431 203.373C198.705 212.987 192.008 222.459 185.17 231.903C183.556 234.168 181.163 234.551 178.713 234.494C170.501 234.409 162.275 234.324 154.035 234.381L52.7155 233.829C39.1373 233.814 25.4176 233.758 11.8677 233.602C9.14925 233.475 6.51576 232.951 3.92473 232.13C2.67877 231.875 1.67352 231.096 1.02222 230.091C0.356766 229.085 0.0311578 227.868 0.00284046 226.565C-0.0396355 206.899 0.342586 187.332 4.71761 167.991C9.46076 147.574 18.4657 129.607 34.3092 115.647C38.6843 111.909 43.6398 108.879 48.7369 105.141C42.5071 91.7329 41.0629 77.5744 46.6131 63.0901C52.3049 48.6484 62.2726 38.6806 76.6011 32.2102C75.5534 30.9784 74.8596 30.1148 74.0526 29.0953C66.0671 18.6605 70.8669 3.59571 83.185 0.608251C86.2432 -0.212948 89.5704 -0.255403 92.6854 0.806492C95.7861 1.86839 98.448 3.70901 100.529 6.30003C105.315 11.8927 106.292 18.4481 103.573 25.4141C103.403 26.2495 102.823 26.9998 102.483 27.9342C106.179 28.9678 109.775 29.7041 113.272 31.0067C130.404 36.9533 141.915 48.5492 146.601 65.9784C150.028 77.5176 149.065 90.0338 144.081 101.007C143.996 101.417 143.798 101.672 143.572 102.055C143.572 102.055 143.515 102.338 143.713 102.805C145.186 104.122 146.786 105.453 148.527 106.826C158.41 115.052 164.895 125.77 170.048 137.366C171.011 139.008 172.002 140.509 173.277 142.067C176.844 137.309 180.172 133.062 183.372 128.659C183.881 127.611 183.966 126.464 183.881 125.444C183.372 105.254 182.89 84.9226 182.38 64.7324C182.097 51.9614 181.772 39.3178 181.602 26.7166C181.489 20.9116 183.513 18.7313 189.233 18.3065C204.864 17.4428 220.481 16.7207 236.084 15.9986C274.879 14.2288 313.645 12.5863 352.553 10.9723C356.051 10.8165 359.194 11.0289 362.125 13.6483C363.229 14.5969 364.036 15.6305 364.645 16.9048C365.254 18.1791 365.551 19.5523 365.579 20.8549C366.301 36.4577 367.024 52.0747 367.604 67.6492C368.369 85.1492 368.978 102.748 369.742 120.248C369.969 126.223 366.797 129.763 360.652 130.103C351.463 130.542 342.26 130.981 332.93 131.391C287.409 133.529 241.748 135.639 196.228 137.791C194.472 137.862 192.362 137.578 189.927 137.522L189.516 137.437L189.531 137.423ZM355.173 20.8833L191.626 27.8777C192.376 56.7896 193.084 85.2483 193.948 114.33C195.265 112.858 196.015 112.008 196.794 111.003C210.301 93.6727 223.653 76.3001 237.189 58.8284C237.996 57.6957 238.944 56.5913 240.006 55.6427C240.898 54.8074 242.017 54.3118 243.178 54.2694C244.339 54.2127 245.599 54.4675 246.448 55.2321C247.468 55.8692 248.133 56.8745 248.332 58.0779C248.516 59.2673 248.431 60.4141 247.794 61.4335C247.043 63.0193 246.009 64.5343 244.863 65.8935C230.166 84.866 215.455 103.824 200.73 122.939C199.782 124.043 198.946 125.317 197.544 127.2C252.112 124.595 305.632 122.202 359.349 119.569C357.891 86.3244 356.589 53.6888 355.201 20.7559L355.173 20.8975V20.8833ZM137.724 111.541C127.119 124.553 113.626 131.915 96.8622 132.694C79.8152 133.416 66.0388 126.563 54.5844 113.962C49.4165 116.666 44.5318 120.008 40.2417 124.043C26.4512 136.403 18.8763 152.346 14.5579 169.959C11.6837 181.937 10.9474 194.071 10.4802 206.262C10.2678 211.571 10.197 216.895 10.1121 222.233C13.9349 223.295 104.154 223.762 106.957 222.742L103.927 177.336C100.869 178.157 98.1506 178.766 95.418 179.361C92.1048 179.984 89.3723 178.568 88.6502 175.665C87.9139 172.918 89.528 170.639 92.5296 169.379C92.8411 169.294 93.3084 169.11 93.6199 169.025C103.007 166.887 111.531 162.696 119.927 158.349C126.907 154.569 133.561 150.293 140.103 145.847C145.115 142.534 149.957 139.334 155.677 137.465C156.456 137.196 157.235 136.913 158.042 136.502C152.86 126.492 146.842 117.742 137.413 111.498L137.696 111.555L137.724 111.541ZM164.98 148.028C163.819 147.362 162.601 146.966 161.284 146.994C159.981 147.022 158.75 147.348 157.617 147.985C153.412 150.165 149.32 152.516 145.313 155.163C136.436 161.152 127.586 167.014 117.633 171.191C114.15 172.649 114.122 172.791 114.334 176.727C115.099 190.036 115.99 203.359 116.911 216.555C117.038 218.75 117.477 220.859 117.718 223.224C118.822 223.45 119.941 223.677 120.833 223.564C138.885 223.634 156.796 223.663 174.806 223.875C175.783 224.073 176.689 223.833 177.496 223.408C178.303 222.997 179.025 222.275 179.62 221.525C184.674 214.46 189.701 207.536 194.713 200.613C196.752 197.71 198.677 194.623 200.461 191.523C201.523 189.866 202.302 188.139 202.557 186.171C203.08 180.068 200.362 177.053 194.472 179.035C191.966 179.969 189.545 181.215 187.237 182.617C186.26 183.141 185.538 183.863 184.589 184.245C183.612 184.769 182.565 184.981 181.446 184.755C180.328 184.528 179.28 184.019 178.586 183.155C177.722 182.405 177.368 181.314 177.156 180.267C176.944 179.219 177.156 178.1 177.807 177.081C178.501 175.778 179.761 174.589 180.313 173.258C181.885 170.54 183.188 167.637 184.264 164.522C185.58 159.439 182.536 156.664 177.354 157.33C176.193 157.386 175.075 157.882 174.098 158.406C171.592 160.062 169.227 161.747 166.976 163.602C165.447 164.735 164.243 166.363 162.714 167.496C161.794 168.458 160.406 168.897 159.132 168.784C157.829 168.812 156.64 168.274 155.663 167.354C154.7 166.434 154.233 165.188 154.205 163.871C154.176 162.568 154.573 161.351 155.38 160.204C156.159 159.213 157.079 158.236 157.999 157.273C159.698 155.305 161.511 153.507 163.068 151.511C163.903 150.236 164.47 148.905 165.022 147.574L164.937 147.985L164.98 148.028ZM95.4321 42.5318C91.6518 44.7972 88.5794 47.0625 85.0822 48.6624C77.5781 52.1879 69.8191 55.5152 62.0885 58.715C60.5311 59.2672 59.1719 60.2868 58.4073 61.8725C55.5897 67.2245 53.9473 73.1001 53.565 79.2308C53.1827 84.6394 53.9756 90.0057 55.8162 95.1452C57.6569 100.285 60.3328 104.886 63.9857 108.95C67.6387 113.013 72.042 116.227 76.9126 118.521C81.7973 120.815 87.1493 122.202 92.4447 122.415C114.207 123.377 134.014 107.76 137.257 86.1686C137.908 82.2608 138.588 78.1973 137.936 74.3178C136.988 68.3429 134.836 62.5662 131.523 57.5541C130.97 56.7187 130.277 55.855 129.399 55.2462C128.507 54.6374 127.572 54.2977 126.454 54.0711C119.955 52.5986 113.555 50.7155 107.198 48.5634C103.064 46.8502 99.1276 44.8962 95.2198 42.8008L95.418 42.546L95.4321 42.5318Z" fill="#102185"/>
<path d="M294.362 59.069C295.154 55.1895 296.769 53.6321 300.719 53.4339C306.269 53.1224 311.777 53.0799 317.299 52.91C322.82 52.7401 328.328 52.6976 333.85 52.5277C340.377 52.4145 342.487 54.1419 343.039 60.6124C344.016 72.803 344.865 84.9651 345.743 96.9999C346.168 102.72 344.073 105.184 338.381 105.467C327.719 106.033 317.058 106.614 306.41 107.052C300.138 107.364 298.227 105.382 297.632 99.0529C296.783 89.0569 295.961 78.9195 294.999 68.7536C294.871 66.559 294.602 64.336 294.432 62.283C294.404 60.9804 294.39 59.6779 294.39 58.9558L294.362 59.0973V59.069ZM332.562 63.1043L304.981 63.6989L307.812 96.646L334.841 95.2159L332.562 63.1043Z" fill="#102185"/>
<path d="M224.361 49.4416C221.034 48.762 219.448 47.2895 219.236 44.7834C219.179 43.6224 219.547 42.5323 220.198 41.5128C220.949 40.6492 221.954 39.9978 223.143 39.7995C224.503 39.5022 225.862 39.205 227.306 39.205C260.14 36.9396 292.988 34.5326 325.963 32.2814C327.294 32.1257 328.569 32.2388 329.857 32.3521C330.961 32.5786 332.052 32.9468 332.873 33.8388C333.708 34.7308 334.204 35.8493 334.246 37.0103C334.303 38.1713 333.765 39.3749 333.156 40.2527C332.547 41.1447 331.542 41.7959 330.31 42.1357C329.22 42.4897 328.059 42.5464 326.898 42.5889L228.297 49.2292C226.825 49.3566 225.239 49.3284 224.375 49.3001L224.347 49.4416H224.361Z" fill="#102185"/>
<path d="M270.362 98.8409C262.702 91.79 260.338 82.785 259.205 73.4545C258.667 69.0087 258.299 64.4497 257.889 60.0322C257.86 59.4517 257.86 58.7296 257.846 58.1491C257.818 56.8466 258.356 55.6571 259.276 54.6802C260.196 53.7174 261.343 53.0802 262.646 53.0519C263.948 53.0236 265.138 53.5617 266.143 54.3404C267.106 55.2607 267.743 56.4076 267.913 57.7385C268.423 60.8817 268.508 64.0674 268.847 67.3239C269.47 72.0812 270.122 76.6826 271.184 81.3833C271.976 85.3052 274.298 88.8025 277.569 91.2094C277.441 89.7369 277.413 88.4343 277.357 87.2591C277.3 86.0981 277.81 85.0363 278.419 84.1585C279.169 83.2948 280.174 82.6434 281.264 82.2753C282.326 82.0629 283.459 82.1479 284.507 82.6434C285.554 83.1531 286.248 84.0168 286.772 84.9796C289.052 91.5067 289.08 98.4586 286.9 104.943C285.951 107.492 283.388 108.709 280.726 109.035C276.592 109.488 272.642 109.7 268.451 109.715C264.982 109.729 262.816 107.563 262.66 104.773L263.085 102.692C263.226 101.998 263.75 101.531 264.316 100.922C264.84 100.455 265.52 100.016 266.129 99.8461C266.766 99.5488 267.516 99.4073 268.21 99.5489C268.96 99.4073 269.711 99.2798 270.49 98.9967L270.376 98.8268L270.362 98.8409Z" fill="#102185"/>
<path d="M99.3962 94.0552C96.4229 93.0216 93.7469 91.3084 91.439 89.1138C89.1453 86.9051 87.3755 84.2432 86.2428 81.2699C85.7473 80.1514 85.6906 78.9904 86.0588 77.9143C86.4269 76.8383 87.2056 75.8331 88.1826 75.3092C89.1878 74.6438 90.5471 74.3464 91.6515 74.5729C92.8974 74.8278 93.931 75.4649 94.7522 76.3569C95.6867 77.4188 96.2955 78.6931 97.2158 79.8966C97.8813 80.9018 98.7025 81.7939 99.7077 82.5726C100.727 83.2097 101.789 83.7194 103.035 83.9743C104.564 84.2858 106.15 84.3141 107.594 83.6061C109.038 82.884 110.128 81.8079 110.709 80.3354C111.134 79.6983 111.304 78.8629 111.714 78.2258C112.196 77.3055 112.918 76.5975 113.895 76.0737C114.843 75.6914 115.891 75.465 116.868 75.6632C117.972 75.8897 119.034 76.3993 119.756 77.1214C120.45 77.9851 120.974 78.962 121.017 80.123C121.116 81.7371 120.917 83.4221 120.054 84.8379C115.211 93.6729 108.883 95.7117 99.2547 94.041L99.3962 94.0694V94.0552Z" fill="#102185"/>
<path d="M90.9014 66.8991C90.2076 66.7575 89.5139 66.6159 89.0184 66.2195C88.5228 65.8231 88.0272 65.4407 87.5742 64.7753C87.2485 64.2797 86.937 63.6285 86.8096 62.8781C86.6397 62.2693 86.6539 61.5471 86.7954 60.8533C87.0786 59.4658 87.7441 58.3048 88.9192 57.5261C90.0944 56.7474 91.4537 56.4501 92.7279 56.5634C93.4217 56.705 94.1154 56.8465 94.611 57.243C95.1065 57.6394 95.7437 58.0499 96.0835 58.5596C96.5508 59.0835 96.7206 59.7066 96.8481 60.457C97.018 61.0658 97.0038 61.7878 96.8622 62.4816C96.7206 63.1754 96.5791 63.8692 96.1543 64.5064C95.7295 65.1435 95.3473 65.639 94.6818 66.0779C94.158 66.5452 93.5066 66.8567 92.7562 66.9841C92.0058 67.1257 91.4253 67.1399 90.7315 66.9983L90.9014 66.8849V66.8991Z" fill="#102185"/>
<path d="M115.353 64.6473C115.07 66.0348 114.263 67.1675 113.116 67.8046C111.941 68.5834 110.61 68.7391 109.222 68.4559C108.529 68.3143 107.976 68.2011 107.368 67.6489C106.872 67.2525 106.405 66.7286 105.923 66.2047C105.598 65.7092 105.315 64.9305 105.159 64.3075C104.989 63.6987 105.003 62.9765 105.272 62.3111C105.414 61.6173 105.669 61.0935 106.079 60.4564C106.476 59.9609 106.999 59.4936 107.523 59.0122C108.019 58.6866 108.798 58.4033 109.421 58.2476C110.029 58.0777 110.723 58.2192 111.417 58.3608C112.111 58.5024 112.776 58.7856 113.272 59.1679C113.767 59.5644 114.235 60.0883 114.716 60.6121C115.042 61.1077 115.325 61.8864 115.481 62.5093C115.622 63.2597 115.636 63.8403 115.367 64.5057L115.339 64.6473H115.353Z" fill="#102185"/>
</svg>

<svg xmlns="http://www.w3.org/2000/svg" width="370" height="235" fill="none" viewBox="0 0 370 235"><path fill="#102185" d="m189.531 137.423-7.42 9.472c10.973 4.984 13.239 8.764 12.786 20.955l1.387.283c11.242-.595 16.311 6.498 16.736 17.132.099 3.058-.552 6.244-2.082 8.821-1.784 3.1-3.44 6.229-5.507 9.287-6.726 9.614-13.423 19.086-20.261 28.53-1.614 2.265-4.007 2.648-6.457 2.591-8.212-.085-16.438-.17-24.678-.113l-101.32-.552c-13.578-.015-27.297-.071-40.847-.227-2.719-.127-5.352-.651-7.943-1.472-1.246-.255-2.251-1.034-2.903-2.039-.665-1.006-.99-2.223-1.02-3.526-.042-19.666.34-39.233 4.716-58.574 4.743-20.417 13.748-38.384 29.591-52.344 4.375-3.738 9.33-6.768 14.428-10.506-6.23-13.408-7.674-27.567-2.124-42.05 5.692-14.443 15.66-24.41 29.988-30.88a104 104 0 0 1-2.548-3.116c-7.986-10.434-3.186-25.5 9.132-28.487 3.058-.82 6.385-.863 9.5.198 3.101 1.062 5.763 2.903 7.844 5.494 4.786 5.593 5.763 12.148 3.044 19.114-.17.835-.75 1.586-1.09 2.52 3.696 1.034 7.292 1.77 10.789 3.073 17.132 5.946 28.643 17.542 33.329 34.971 3.427 11.54 2.464 24.056-2.52 35.029-.085.41-.283.665-.509 1.048 0 0-.057.283.141.75a102 102 0 0 0 4.814 4.021c9.883 8.226 16.368 18.944 21.521 30.54.963 1.642 1.954 3.143 3.229 4.701 3.567-4.758 6.895-9.005 10.095-13.408.509-1.048.594-2.195.509-3.215-.509-20.19-.991-40.521-1.501-60.712-.283-12.77-.608-25.414-.778-38.015-.113-5.805 1.911-7.986 7.631-8.41 15.631-.864 31.248-1.586 46.851-2.308 38.795-1.77 77.561-3.413 116.469-5.027 3.498-.155 6.641.057 9.572 2.676 1.104.949 1.911 1.983 2.52 3.257a9.7 9.7 0 0 1 .934 3.95c.722 15.603 1.445 31.22 2.025 46.794.765 17.5 1.374 35.099 2.138 52.599.227 5.975-2.945 9.515-9.09 9.855-9.189.439-18.392.878-27.722 1.288-45.521 2.138-91.182 4.248-136.702 6.4-1.756.071-3.866-.213-6.301-.269l-.411-.085zm165.642-116.54-163.547 6.995c.75 28.912 1.458 57.37 2.322 86.452 1.317-1.472 2.067-2.322 2.846-3.327 13.507-17.33 26.859-34.703 40.395-52.175.807-1.132 1.755-2.237 2.817-3.185.892-.836 2.011-1.331 3.172-1.374 1.161-.056 2.421.199 3.27.963a4.08 4.08 0 0 1 1.884 2.846c.184 1.19.099 2.336-.538 3.355-.751 1.586-1.785 3.101-2.931 4.46-14.697 18.973-29.408 37.931-44.133 57.046-.948 1.104-1.784 2.378-3.186 4.261 54.568-2.605 108.088-4.998 161.805-7.631-1.458-33.245-2.76-65.88-4.148-98.813l-.028.142zm-217.449 90.658c-10.605 13.012-24.098 20.374-40.862 21.153-17.047.722-30.823-6.131-42.278-18.732-5.168 2.704-10.052 6.046-14.342 10.081-13.79 12.36-21.366 28.303-25.684 45.916-2.874 11.978-3.61 24.112-4.078 36.303-.212 5.309-.283 10.633-.368 15.971 3.823 1.062 94.042 1.529 96.845.509l-3.03-45.406c-3.058.821-5.776 1.43-8.509 2.025-3.313.623-6.046-.793-6.768-3.696-.736-2.747.878-5.026 3.88-6.286.311-.085.778-.269 1.09-.354 9.387-2.138 17.911-6.329 26.307-10.676 6.98-3.78 13.634-8.056 20.176-12.502 5.012-3.313 9.854-6.513 15.574-8.382.779-.269 1.558-.552 2.365-.963-5.182-10.01-11.2-18.76-20.629-25.004l.283.057zm27.256 36.487c-1.161-.666-2.379-1.062-3.696-1.034a7.7 7.7 0 0 0-3.667.991c-4.205 2.18-8.297 4.531-12.304 7.178-8.877 5.989-17.727 11.851-27.68 16.028-3.483 1.458-3.511 1.6-3.299 5.536.765 13.309 1.656 26.632 2.577 39.828.127 2.195.566 4.304.807 6.669 1.104.226 2.223.453 3.115.34 18.052.07 35.963.099 53.973.311.977.198 1.883-.042 2.69-.467.807-.411 1.529-1.133 2.124-1.883 5.054-7.065 10.081-13.989 15.093-20.912 2.039-2.903 3.964-5.99 5.748-9.09 1.062-1.657 1.841-3.384 2.096-5.352.523-6.103-2.195-9.118-8.085-7.136-2.506.934-4.927 2.18-7.235 3.582-.977.524-1.699 1.246-2.648 1.628-.977.524-2.024.736-3.143.51-1.118-.227-2.166-.736-2.86-1.6-.864-.75-1.218-1.841-1.43-2.888-.212-1.048 0-2.167.651-3.186.694-1.303 1.954-2.492 2.506-3.823 1.572-2.718 2.875-5.621 3.951-8.736 1.316-5.083-1.728-7.858-6.91-7.192-1.161.056-2.279.552-3.256 1.076-2.506 1.656-4.871 3.341-7.122 5.196-1.529 1.133-2.733 2.761-4.262 3.894-.92.962-2.308 1.401-3.582 1.288-1.303.028-2.492-.51-3.469-1.43-.963-.92-1.43-2.166-1.458-3.483-.029-1.303.368-2.52 1.175-3.667.779-.991 1.699-1.968 2.619-2.931 1.699-1.968 3.512-3.766 5.069-5.762.835-1.275 1.402-2.606 1.954-3.937l-.085.411zM95.432 42.532c-3.78 2.265-6.853 4.53-10.35 6.13-7.504 3.526-15.263 6.853-22.993 10.053-1.558.552-2.917 1.572-3.682 3.157-2.817 5.353-4.46 11.228-4.842 17.359-.382 5.408.41 10.775 2.251 15.914 1.84 5.14 4.517 9.741 8.17 13.805 3.653 4.063 8.056 7.277 12.927 9.571 4.884 2.294 10.236 3.681 15.532 3.894 21.762.962 41.569-14.655 44.812-36.246.651-3.908 1.331-7.972.679-11.851-.948-5.975-3.1-11.752-6.413-16.764-.553-.835-1.246-1.699-2.124-2.308-.892-.609-1.827-.948-2.945-1.175-6.499-1.472-12.899-3.355-19.256-5.508-4.134-1.713-8.07-3.667-11.978-5.762l.198-.255z"/><path fill="#102185" d="M294.362 59.069c.792-3.88 2.407-5.437 6.357-5.635 5.55-.312 11.058-.354 16.58-.524s11.029-.212 16.551-.382c6.527-.114 8.637 1.614 9.189 8.084.977 12.191 1.826 24.353 2.704 36.388.425 5.72-1.67 8.184-7.362 8.467-10.662.566-21.323 1.147-31.971 1.585-6.272.312-8.183-1.67-8.778-8-.849-9.995-1.671-20.133-2.633-30.298-.128-2.195-.397-4.418-.567-6.471a176 176 0 0 1-.042-3.327l-.028.141zm38.2 4.035-27.581.595 2.831 32.947 27.029-1.43zM224.361 49.442c-3.327-.68-4.913-2.153-5.125-4.659-.057-1.16.311-2.25.962-3.27.751-.864 1.756-1.515 2.945-1.713 1.36-.298 2.719-.595 4.163-.595 32.834-2.265 65.682-4.672 98.657-6.924 1.331-.155 2.606-.042 3.894.071 1.104.227 2.195.595 3.016 1.487.835.892 1.331 2.01 1.373 3.171.057 1.161-.481 2.365-1.09 3.243-.609.892-1.614 1.543-2.846 1.883-1.09.354-2.251.41-3.412.453l-98.601 6.64c-1.472.128-3.058.1-3.922.071l-.028.142zM270.362 98.84c-7.66-7.05-10.024-16.055-11.157-25.386-.538-4.445-.906-9.004-1.316-13.422-.029-.58-.029-1.302-.043-1.883-.028-1.302.51-2.492 1.43-3.469.92-.963 2.067-1.6 3.37-1.628s2.492.51 3.497 1.288c.963.92 1.6 2.068 1.77 3.398.51 3.144.595 6.33.934 9.586.623 4.757 1.275 9.359 2.337 14.06.792 3.921 3.114 7.418 6.385 9.825-.128-1.472-.156-2.775-.212-3.95-.057-1.16.453-2.223 1.062-3.1a6.57 6.57 0 0 1 2.845-1.884c1.062-.212 2.195-.127 3.243.368 1.047.51 1.741 1.374 2.265 2.337 2.28 6.527 2.308 13.479.128 19.963-.949 2.549-3.512 3.766-6.174 4.092-4.134.453-8.084.665-12.275.68-3.469.014-5.635-2.152-5.791-4.942l.425-2.081c.141-.694.665-1.161 1.231-1.77.524-.467 1.204-.906 1.813-1.076.637-.297 1.387-.439 2.081-.297.75-.142 1.501-.27 2.28-.552l-.114-.17zM99.396 94.055c-2.973-1.033-5.65-2.747-7.957-4.941a21.5 21.5 0 0 1-5.196-7.844c-.496-1.119-.552-2.28-.184-3.356s1.147-2.08 2.124-2.605c1.005-.665 2.364-.963 3.468-.736 1.246.255 2.28.892 3.101 1.784.935 1.062 1.544 2.336 2.464 3.54a11.1 11.1 0 0 0 2.492 2.676c1.019.637 2.081 1.146 3.327 1.401 1.529.312 3.115.34 4.559-.368 1.444-.722 2.534-1.798 3.115-3.27.425-.638.595-1.473 1.005-2.11.482-.92 1.204-1.629 2.181-2.152.948-.383 1.996-.609 2.973-.41 1.104.226 2.166.735 2.888 1.457.694.864 1.218 1.841 1.261 3.002.099 1.614-.1 3.3-.963 4.715-4.843 8.835-11.171 10.874-20.8 9.203l.142.028zM90.901 66.9c-.693-.143-1.387-.284-1.883-.68-.495-.397-.99-.78-1.444-1.445a5 5 0 0 1-.764-1.897c-.17-.609-.156-1.33-.015-2.025.284-1.387.95-2.548 2.124-3.327a5.95 5.95 0 0 1 3.809-.963c.694.142 1.387.283 1.883.68.495.396 1.133.807 1.472 1.317.468.523.638 1.147.765 1.897.17.609.156 1.33.014 2.025-.141.693-.283 1.387-.708 2.024-.424.638-.807 1.133-1.472 1.572a3.8 3.8 0 0 1-1.926.906c-.75.142-1.33.156-2.025.014l.17-.113zM115.353 64.647c-.283 1.388-1.09 2.52-2.237 3.158-1.175.778-2.506.934-3.894.65-.693-.14-1.246-.254-1.854-.806-.496-.397-.963-.92-1.445-1.444-.325-.496-.608-1.275-.764-1.897a3.14 3.14 0 0 1 .113-1.997c.142-.694.397-1.218.807-1.855.397-.495.92-.962 1.444-1.444.496-.325 1.275-.609 1.898-.764.608-.17 1.302-.029 1.996.113.694.141 1.359.425 1.855.807.495.396.963.92 1.444 1.444.326.496.609 1.274.765 1.897.141.75.155 1.331-.114 1.997l-.028.141z"/></svg>
